icon-store.svg

<svg xmlns="http://www.w3.org/2000/svg" width="32" height="32" viewBox="0 0 32 32">
  <g fill="none" fill-rule="evenodd">
    <path fill="#FCBABA" d="M2,29.9982026 L2,18.5 L6,18.5 L6,26.5 L16,26.5 L16,18.5 L30,18.5 L30,29.9982026 C30,30.5551184 29.5527519,31 29.0010434,31 L27.9989566,31 C27.4426603,31 27,30.5520913 27,29.9995679 L27,19.5 L20,19.5 L20,29.9995679 C20,30.5491864 19.5552407,31 19.0066023,31 L2.99339768,31 C2.44494629,31 2,30.55148 2,29.9982026 Z M2,2.00138006 C2,1.44833313 2.43981314,1 2.99653482,1 L29.0034652,1 C29.5538362,1 30,1.44677132 30,2.00138006 L30,7.5 L2,7.5 L2,2.00138006 Z"/>
    <path fill="#F62C2C" d="M1,19.5 L31,19.5 L31,19.5 C31.5522847,19.5 32,19.0522847 32,18.5 L32,15.6097722 L32,15.6097722 C32,15.5368099 31.9920148,15.4640667 31.9761871,15.3928418 L30,6.5 L2,6.5 L0.0238129398,15.3928418 L0.0238129398,15.3928418 C0.00798518471,15.4640667 -8.89071951e-15,15.5368099 -8.8817842e-15,15.6097722 L0,18.5 L0,18.5 C6.76353751e-17,19.0522847 0.44771525,19.5 1,19.5 Z"/>
  </g>
</svg>

<svg xmlns="http://www.w3.org/2000/svg" width="32" height="32"><g fill="none" fill-rule="evenodd"><path fill="#FCBABA" d="M2 29.998V18.5h4v8h10v-8h14v11.498A.998.998 0 0 1 29.001 31h-1.002A.997.997 0 0 1 27 30V19.5h-7V30c0 .55-.445 1-.993 1H2.993A.998.998 0 0 1 2 29.998zM2 2.001C2 1.448 2.44 1 2.997 1h26.006c.55 0 .997.447.997 1.001V7.5H2V2.001z"/><path fill="#F62C2C" d="M1 19.5h30a1 1 0 0 0 1-1v-2.89a1 1 0 0 0-.024-.217L30 6.5H2L.024 15.393A1 1 0 0 0 0 15.61v2.89a1 1 0 0 0 1 1z"/></g></svg>
